X:1
T:Charming Beauty Bright
M:2/2
L:1/4
K:G
 B2 G- A| G2 A B| c2 B A| G2 A- B| c- B c d| g2 e e| d2 B d| d3 B|\
 d d e d| B2 d B| A G B G| E2 D E| G A B c| d2 e c| B- G A A| G3 z|\
